src/icons/erlang.svg

<svg width="16" height="16" viewBox="0 0 16 16" fill="none" xmlns="http://www.w3.org/2000/svg">
<g clip-path="url(#clip0_38_178)">
<path d="M2.179 2.93701H1C0.734784 2.93701 0.48043 3.04237 0.292893 3.2299C0.105357 3.41744 0 3.6718 0 3.93701L0 12.062C0 12.3272 0.105357 12.5816 0.292893 12.7691C0.48043 12.9567 0.734784 13.062 1 13.062H2.51C1.266 11.746 0.541 9.92801 0.541 7.76001C0.541 5.84201 1.141 4.19201 2.178 2.93801M13.978 13.064C14.54 12.4513 15.0264 11.7735 15.427 11.045L13.017 9.83901C12.17 11.216 10.932 12.483 9.22 12.491C6.728 12.483 5.749 10.352 5.754 7.61001H15.065C15.077 7.30001 15.065 7.00701 15.065 7.00701C15.125 5.37501 14.693 4.00501 13.907 2.93701H15C15.2652 2.93701 15.5196 3.04237 15.7071 3.2299C15.8946 3.41744 16 3.6718 16 3.93701V12.064C16 12.3292 15.8946 12.5836 15.7071 12.7711C15.5196 12.9587 15.2652 13.064 15 13.064H13.978ZM5.906 5.25801C6.009 4.01701 6.988 3.18101 8.136 3.17801C9.292 3.18101 10.126 4.01601 10.155 5.25801H5.906Z" fill="#FC8289"/>
</g>
<defs>
<clipPath id="clip0_38_178">
<rect width="16" height="16" fill="white"/>
</clipPath>
</defs>
</svg>

<svg xmlns="http://www.w3.org/2000/svg" width="16" height="16" fill="none"><path fill="#FC8289" d="M2.179 2.937H1a1 1 0 0 0-1 1v8.125a1 1 0 0 0 1 1h1.51C1.266 11.746.541 9.928.541 7.76c0-1.918.6-3.568 1.637-4.822m11.8 10.126a10.4 10.4 0 0 0 1.449-2.019l-2.41-1.206c-.847 1.377-2.085 2.644-3.797 2.652-2.492-.008-3.471-2.139-3.466-4.881h9.311c.012-.31 0-.603 0-.603.06-1.632-.372-3.002-1.158-4.07H15a1 1 0 0 1 1 1v8.127a1 1 0 0 1-1 1zM5.906 5.258c.103-1.241 1.082-2.077 2.23-2.08 1.156.003 1.99.838 2.019 2.08z"/></svg>
